src/status/24/network-cellular-no-route-symbolic.svg

<?xml version="1.0" encoding="UTF-8" standalone="no"?>
<svg
   xmlns:dc="http://purl.org/dc/elements/1.1/"
   xmlns:cc="http://creativecommons.org/ns#"
   xmlns:rdf="http://www.w3.org/1999/02/22-rdf-syntax-ns#"
   xmlns:svg="http://www.w3.org/2000/svg"
   xmlns="http://www.w3.org/2000/svg"
   height="24"
   width="24"
   version="1.1"
   id="svg6">
  <metadata
     id="metadata12">
    <rdf:RDF>
      <cc:Work
         rdf:about="">
        <dc:format>image/svg+xml</dc:format>
        <dc:type
           rdf:resource="http://purl.org/dc/dcmitype/StillImage" />
        <dc:title />
      </cc:Work>
    </rdf:RDF>
  </metadata>
  <defs
     id="defs10" />
  <path
     style="color:#000000;overflow:visible;opacity:0.4;isolation:auto;mix-blend-mode:normal;fill:#363636;marker:none"
     d="M 20.5,8 C 20.223,8 20,8.223 20,8.5 v 11 c 0,0.277 0.223,0.5 0.5,0.5 h 1 C 21.777,20 22,19.777 22,19.5 V 8.5 C 22,8.223 21.777,8 21.5,8 Z M 1.46875,12 1,13 4,16 v 4 H 5 V 16 L 8,13 7.625,12 Z M 2.375,13 H 4 v 1.625 z M 5,13 H 6.625 L 5,14.625 Z m 7.5,1 C 12.223,14 12,14.223 12,14.5 v 5 c 0,0.277 0.223,0.5 0.5,0.5 h 0.771484 C 13.094712,19.696304 13.001074,19.351395 13,19 c -6.5e-5,-0.600327 0.269538,-1.168933 0.734375,-1.548828 -0.415427,-0.358825 -0.683873,-0.878405 -0.677734,-1.490234 0.0027,-0.791399 0.337555,-1.419909 0.683593,-1.853516 v -0.002 c 0.0063,-0.0079 0.01453,-0.01415 0.02149,-0.02149 C 13.684581,14.035385 13.598284,14 13.5,14 Z m 5.5,1.570312 c -0.278437,0.288826 -0.598135,0.55641 -0.966797,0.835938 -0.173914,0.131809 -0.313701,0.287901 -0.203125,0.146484 -0.01614,0.02001 -0.02789,0.03449 -0.04883,0.05859 -0.0097,0.01119 -0.02343,0.02695 -0.04883,0.05273 -0.120189,0.29416 -0.304105,0.538913 -0.517578,0.75 C 16.708928,17.791862 16.999122,18.378026 17,19 c -4.81e-4,0.351217 -0.09344,0.696115 -0.269531,1 H 17.5 C 17.777,20 18,19.777 18,19.5 Z M 8.5,17 C 8.223,17 8,17.223 8,17.5 v 2 C 8,19.777 8.223,20 8.5,20 h 1 C 9.777,20 10,19.777 10,19.5 v -2 C 10,17.223 9.777,17 9.5,17 Z"
     id="path2" />
  <path
     id="path4"
     style="color:#bebebe;overflow:visible;fill:#363636;marker:none"
     overflow="visible"
     d="m 14.848,9.969 c 1.643,-0.092 3.096,1.17 3.188,2.812 0,1.402 -0.378,1.922 -1.594,2.844 -0.19,0.144 -0.325,0.25 -0.375,0.313 -0.05,0.062 -0.031,0.033 -0.031,0.03 0.007,0.529 -0.472,1 -1,1 -0.528,0 -1.007,-0.471 -1,-1 0,-0.502 0.224,-0.943 0.469,-1.25 a 3.82,3.82 0 0 1 0.718,-0.687 c 0.205,-0.16 0.461,-0.384 0.688,-0.656 0.093,-0.112 0.129,-0.308 0.125,-0.438 v -0.03 a 0.988,0.988 0 0 0 -1.063,-0.938 c -0.563,0.031 -0.969,0.437 -0.937,1 h -2 c -0.092,-1.643 1.17,-2.908 2.812,-3 z m 0.188,8 a 1,1 0 1 1 0,2 1,1 0 0 1 0,-2 z" />
</svg>

<svg xmlns="http://www.w3.org/2000/svg" width="24" height="24">
    <path d="M20.5 8c-.277 0-.5.223-.5.5v11c0 .277.223.5.5.5h1c.277 0 .5-.223.5-.5v-11c0-.277-.223-.5-.5-.5ZM1.469 12 1 13l3 3v4h1v-4l3-3-.375-1Zm.906 1H4v1.625zM5 13h1.625L5 14.625Zm7.5 1c-.277 0-.5.223-.5.5v5c0 .277.223.5.5.5h.771A2 2 0 0 1 13 19a2 2 0 0 1 .734-1.549 1.92 1.92 0 0 1-.677-1.49c.002-.791.337-1.42.683-1.854v-.002l.022-.021A.488.488 0 0 0 13.5 14Zm5.5 1.57a8.246 8.246 0 0 1-.967.836c-.174.132-.313.288-.203.147a1.808 1.808 0 0 1-.098.111c-.12.294-.304.539-.517.75A2 2 0 0 1 17 19a2 2 0 0 1-.27 1h.77c.277 0 .5-.223.5-.5ZM8.5 17c-.277 0-.5.223-.5.5v2c0 .277.223.5.5.5h1c.277 0 .5-.223.5-.5v-2c0-.277-.223-.5-.5-.5Z" style="color:#000;overflow:visible;opacity:.4;isolation:auto;mix-blend-mode:normal;fill:#050505;marker:none"/>
    <path d="M14.848 9.969c1.643-.092 3.096 1.17 3.188 2.812 0 1.402-.378 1.922-1.594 2.844-.19.144-.325.25-.375.313-.05.062-.031.033-.031.03.007.529-.472 1-1 1s-1.007-.471-1-1c0-.502.224-.943.469-1.25a3.82 3.82 0 0 1 .718-.687 4.56 4.56 0 0 0 .688-.656c.093-.112.129-.308.125-.438v-.03a.988.988 0 0 0-1.063-.938c-.563.031-.969.437-.937 1h-2c-.092-1.643 1.17-2.908 2.812-3zm.188 8a1 1 0 1 1 0 2 1 1 0 0 1 0-2z" overflow="visible" style="color:#bebebe;overflow:visible;fill:#050505;marker:none"/>
</svg>
